dist/assets/images/card/share.svg

<svg width="23" height="23" viewBox="0 0 23 23" fill="none" xmlns="http://www.w3.org/2000/svg">
<path d="M18.5078 14.7762C17.1849 14.7762 16.0053 15.4066 15.2508 16.3808L8.93245 12.8515C9.0805 12.4265 9.16169 11.968 9.16169 11.4952C9.16169 11.0176 9.0805 10.564 8.92768 10.1341L15.2412 6.60963C15.991 7.58866 17.1754 8.22384 18.5031 8.22384C20.7668 8.22384 22.615 6.3804 22.615 4.11192C22.615 1.84344 20.7715 0 18.5031 0C16.2346 0 14.3911 1.84344 14.3911 4.11192C14.3911 4.58949 14.4723 5.04797 14.6251 5.47301L8.31638 8.99751C7.56659 8.0137 6.3822 7.38331 5.05455 7.38331C2.79084 7.38331 0.942627 9.22674 0.942627 11.4952C0.942627 13.7637 2.79084 15.6071 5.05932 15.6071C6.38698 15.6071 7.57136 14.972 8.32593 13.9882L14.6395 17.5174C14.4866 17.9473 14.4007 18.4105 14.4007 18.8881C14.4007 21.1518 16.2441 23 18.5126 23C20.7811 23 22.6245 21.1566 22.6245 18.8881C22.6245 16.6196 20.7763 14.7762 18.5078 14.7762ZM18.5078 1.29423C20.0647 1.29423 21.3303 2.5598 21.3303 4.11669C21.3303 5.67359 20.0647 6.93916 18.5078 6.93916C16.9509 6.93916 15.6854 5.67359 15.6854 4.11669C15.6854 2.5598 16.9557 1.29423 18.5078 1.29423ZM5.05932 14.3177C3.50243 14.3177 2.23685 13.0521 2.23685 11.4952C2.23685 9.93833 3.50243 8.67276 5.05932 8.67276C6.61621 8.67276 7.88179 9.93833 7.88179 11.4952C7.88179 13.0521 6.61144 14.3177 5.05932 14.3177ZM18.5078 21.7058C16.9509 21.7058 15.6854 20.4402 15.6854 18.8833C15.6854 17.3264 16.9509 16.0608 18.5078 16.0608C20.0647 16.0608 21.3303 17.3264 21.3303 18.8833C21.3303 20.4402 20.0647 21.7058 18.5078 21.7058Z" fill="#313131"/>
</svg>

<svg width="23" height="23" fill="none" xmlns="http://www.w3.org/2000/svg"><path d="M18.508 14.776c-1.323 0-2.503.63-3.257 1.605l-6.319-3.53a4.098 4.098 0 00-.004-2.716L15.24 6.61a4.106 4.106 0 003.262 1.614 4.118 4.118 0 004.112-4.112A4.115 4.115 0 0018.503 0a4.115 4.115 0 00-4.112 4.112c0 .477.081.936.234 1.361L8.316 8.998a4.092 4.092 0 00-3.261-1.615 4.118 4.118 0 00-4.112 4.112 4.112 4.112 0 007.383 2.493l6.313 3.53c-.152.43-.238.892-.238 1.37A4.118 4.118 0 0018.513 23a4.115 4.115 0 004.111-4.112 4.12 4.12 0 00-4.116-4.112zm0-13.482a2.825 2.825 0 012.822 2.823 2.825 2.825 0 01-2.822 2.822 2.825 2.825 0 01-2.823-2.822 2.828 2.828 0 012.823-2.823zM5.059 14.318a2.825 2.825 0 01-2.822-2.823 2.825 2.825 0 012.822-2.822 2.825 2.825 0 012.823 2.822 2.828 2.828 0 01-2.823 2.823zm13.449 7.388a2.825 2.825 0 01-2.823-2.823 2.825 2.825 0 012.823-2.822 2.825 2.825 0 012.822 2.822 2.825 2.825 0 01-2.822 2.823z" fill="#313131"/></svg>
